X:191
M:4/4
L:1/4
K:D
D | F G A A | B B A2 | z A A d | c A B B | A3 A | d c B A | B G F2 | z !sintro!F B B | A F G E | D3 !eintro!|]
